icon-themes/sifr_svg/cmd/lc_polygon_unfilled.svg

<svg viewBox="0 0 24 24" xmlns="http://www.w3.org/2000/svg"><path d="m19 2v1h-1v.5l-13 1.25v-.75h-2v1h-1v2h1v12h-1v2h1v1h2v-.888672c4.67-.011328 9.33-.111328 14-.111328v1h2v-1h1v-2h-1v-5h1v-2h-1v-7h1v-2h-1v-1zm0 3.25v6.75h-1v2h1v5h-14v-12h1v-.5z" fill="#555753"/></svg>

<svg xmlns="http://www.w3.org/2000/svg" viewBox="0 0 24 24">
  <path
     style="fill:#555753"
     d="M 19 2 L 19 3 L 18 3 L 18 3.5 L 5 4.75 L 5 4 L 3 4 L 3 5 L 2 5 L 2 7 L 3 7 L 3 19 L 2 19 L 2 21 L 3 21 L 3 22 L 5 22 L 5 21.111328 C 9.67 21.1 14.33 21 19 21 L 19 22 L 21 22 L 21 21 L 22 21 L 22 19 L 21 19 L 21 14 L 22 14 L 22 12 L 21 12 L 21 5 L 22 5 L 22 3 L 21 3 L 21 2 L 19 2 z M 19 5.25 L 19 12 L 18 12 L 18 14 L 19 14 L 19 19 L 5 19 L 5 7 L 6 7 L 6 6.5 L 19 5.25 z "
     />
</svg>
